X:300
T:Sporting Molly
T:Colonel McBain
T:Seán Frank
O:Ireland
R:Reel
B:Ceol Rince 182
B:Roche 1, 156
B:O'Neill's 1403
S:Roche 1, 156
Z:Transcription, minor arr., chords:Mike Long
M:C|
L:1/8
K:G
"Em"E2(3(GFE) BEGE|"D"D2 (3(FED) ADFD|"Em"E2(3(GFE) BEGE|"D"(3(FGA) DF "Em"E2GF|\
"Em"E2(3(GFE) BEGE|
"D"D2 (3(FED) ADFD|"Em"E2(3(GFE) BEGE|"D"(3(FGA) DF "Em"E2EF|]\
"G"G2{A}GF GBdB|"D"ABAG FGAF|
"Em"Eeed e2ef|"D"(3(gfe) fd "Em"e2ef|\
"G"g2dB GBdB|"D"ABAG FGAF|"Em"Eeed e2Ac|"G"BA"D"GF "Em"E2GF|]
